X:1
T:A Bachelor Gay
C:Harris,Valentine,Tate
Z:All Rights Reserved
L:1/8
Q:1/4=120
M:6/8
K:G
V:1 treble transpose=-12 nm="Guitar"
%%MIDI program 25
V:1
"G" [GBg]z[B,D] [B,D]z[B,D] | [B,D]z[B,D] [B,D]z[B,D] | BAG"G+" B2 G |"G" B3-"G+" BGA | %4
w: |* * * A|bach- el- or gay am|I, * Tho' I've|
w: |* * * A|girl as you've heard of|old * Is a|
"G" BAG"G+" B2 G |"G6" B3-"G7" B2 B |"D7" cBA d2"Ebdim" B |"Em" G2"B7" A"Em" B2 G |"A7" ABA G2 E | %9
w: suf- fer'd from Cu- pid's|dart * But|nev- er I vow will|I say die In|spite of an ach- ing|
w: kind of a par- a-|dox- * She|chang- es her mind more|times I'm told, Than|ev- er she does her|
"^D47" A3-"D7" A^CD |"G" BAG"G+" B2 G |"G6" B2 G"G7" BB^c |"Bm" d2 B"F#7" ^c2 F |"Bm" d3- d2 d | %14
w: heart- * For a|man al- ways loves a|girl or two Tho' the|fact must be con-|fess'd- * He|
w: frocks- * And a|man's like a moth a-|round a flame For it's|near- ly al- ways|found- * He|
"Abdim" ^c2 B"D" A2 A |"Ebdim" B2 A"Em" G!fermata!zG |"D" F2 A"A7" F2 E |"D" F2 A"Bm" d2 d | %18
w: al- ways swears the|whole way thro' To|ev- 'ry girl he|tries to woo That|
w: burns his wings, but|all the same, The|ni- cest part of|Cu- pid's game Is|
"Em" EFG"A7" A2 E |"^D47" A3-"D" A z z ||"Am7b5" cdc B2 c |"D7" d3- d z z ||[M:4/4] z4 z B,D^D | %23
w: he loves her far the|best- *|He loves her far the|best- *|At sev- en-|
w: flut- ter- ing round and|round- *||||
"G" E4- ED^CD |"E7" c2 B2 ^A2 BE |"A7" B2 A2 ^G2 A2 | E4- EE^DE |"^D47" G4- GF"Ddim"^EF | %28
w: teen * he falls in|love quite mad- ly with|eyes of ten- der|blue- * At twen- ty|four- * he gets it|
w: |||||
"D7" B2 A2 F2 ^CD |"G" F2 E^D F2 E2 | B,4- B,B,D^D |"G" E4- ED^CD |"E7" c2 B2 ^A2 BE | %33
w: rath- er bad- ly with|eyes of a diff- 'rent|hue- * At thir- ty|five * you'll see him|flirt- ing sad- ly with|
w: |||||
"A7" B2 A2 ^G2 A2 | e4- e2"Eb7" GA |"G" B^ABd"D7" B=ABA |"Em" GFGB"A7" FEFE |"G" DEGB"D7" edAB | %38
w: two or three or|more- * When he|fan- cies he is past love, It is|then he meets his last love, and he|loves her as he's nev- er lov'd be-|
w: |||||
"G" G4- GB,D^D :|"G" G4- G z z2 |] %40
w: fore- * At sev- en|fore. *|
w: ||

